icon-themes/sifr_svg/cmd/lc_symbolshapes.brace-pair.svg

<svg viewBox="0 0 24 24" xmlns="http://www.w3.org/2000/svg"><path d="m9 2c-1.66 0-3 1.34-3 3v4c0 .55-.45.9-1 1h-1v4h1c.55 0 1 .45 1 1v4c0 1.66 1.34 3 3 3h2v-2h-2c-.55 0-1-.45-1-1v-4c0-2-1.16-2.45-2-3 .84-.55 2-1 2-3v-4c0-.55.45-1 1-1h2v-2zm4 0v2h2c.55 0 1 .4477151 1 1v4c0 2 1.16 2.45 2 3-.87.55-2 1-2 3v4c0 .55-.45 1-1 1h-2v2h2c1.66 0 3-1.34 3-3v-4c0-.55.45-1 1-1h1v-4h-1c-.55 0-1-.45-1-1v-4c0-1.66-1.34-3-3-3z" fill="#555753"/></svg>

<svg viewBox="0 0 24 24" xmlns="http://www.w3.org/2000/svg">
  <path
     style="fill:#555753"
     d="M 9,2 C 7.34,2 6,3.34 6,5 V 9 C 6,9.55 5.55,9.9 5,10 H 4 v 4 h 1 c 0.55,0 1,0.45 1,1 v 4 c 0,1.66 1.34,3 3,3 h 2 V 20 H 9 C 8.45,20 8,19.55 8,19 V 15 C 8,13 6.84,12.55 6,12 6.84,11.45 8,11 8,9 V 5 C 8,4.45 8.45,4 9,4 h 2 V 2 Z m 4,0 v 2 h 2 c 0.55,0 1,0.4477151 1,1 v 4 c 0,2 1.16,2.45 2,3 -0.87,0.55 -2,1 -2,3 v 4 c 0,0.55 -0.45,1 -1,1 h -2 v 2 h 2 c 1.66,0 3,-1.34 3,-3 v -4 c 0,-0.55 0.45,-1 1,-1 h 1 V 10 H 19 C 18.45,10 18,9.55 18,9 V 5 C 18,3.34 16.66,2 15,2 Z"
     />
</svg>
